src/assets/mediaicons/tik-tok.svg

<svg fill="none" height="30" viewBox="0 0 25 30" width="25" xmlns="http://www.w3.org/2000/svg" xmlns:xlink="http://www.w3.org/1999/xlink"><clipPath id="a"><path d="m0 0h25v30h-25z"/></clipPath><g clip-path="url(#a)"><path d="m24.9965 12.1377c-.2392.0234-.4785.0361-.7177.0379-2.6314 0-5.0851-1.3618-6.5257-3.62133v12.33233c0 5.0337-3.9735 9.1138-8.87566 9.1138-4.90221 0-8.87744-4.0819-8.87744-9.1156s3.97347-9.1138 8.87568-9.1138c.18469 0 .36586.0181.54879.0289v4.4919c-.18293-.0217-.36059-.056-.54879-.056-2.50124 0-4.53107 2.0825-4.53107 4.6526s2.02808 4.6526 4.53107 4.6526c2.50302 0 4.71222-2.0247 4.71222-4.5948l.044-20.94400273h4.1845c.394 3.85250273 3.4212 6.86333273 7.1836 7.14509273v4.99221" fill="#fff"/></g></svg>

<svg width="25" height="30" viewBox="0 0 25 30" fill="none" xmlns="http://www.w3.org/2000/svg">
<g clip-path="url(#clip0_320_8)">
<path d="M24.9965 12.1377C24.7573 12.1611 24.518 12.1738 24.2788 12.1756C21.6474 12.1756 19.1937 10.8138 17.7531 8.55427V20.8866C17.7531 25.9203 13.7796 30.0004 8.87744 30.0004C3.97523 30.0004 0 25.9185 0 20.8848C0 15.8511 3.97347 11.771 8.87568 11.771C9.06037 11.771 9.24154 11.7891 9.42447 11.7999V16.2918C9.24154 16.2701 9.06388 16.2358 8.87568 16.2358C6.37444 16.2358 4.34461 18.3183 4.34461 20.8884C4.34461 23.4585 6.37269 25.541 8.87568 25.541C11.3787 25.541 13.5879 23.5163 13.5879 20.9462L13.6319 0.00219727H17.8164C18.2104 3.8547 21.2376 6.86553 25 7.14729V12.1395" fill="white"/>
</g>
<defs>
<clipPath id="clip0_320_8">
<rect width="25" height="30" fill="white"/>
</clipPath>
</defs>
</svg>
